X:132
T:Don't Give Your Heart To A Rambler
C:David Grisman solo
N:Transcribed by Larry Tanner
R:bluegrass
L:1/8
Q:1/4=209
M:4/4
K:Bb
z8 | z2 F2 FG B2 | "G"c/d/d/d/ d2 fg f2 | (3dcB (3BBB c2 d2 | (3"C"BcB (3FFG (3GGG (3GGG | 
(3GGG (3GGG (3G_GF (3EEE | (3"D"FFF (3FFF GA cc | d2 f2 fg fc | (3"G"cdd (3ddd dc BG | 
F2 FF FG Bc | c/d/d/d/ d2 fg fg | (3dcB (3BBB c2 d2 | (3"C"BcB (3FFG (3GGG (3GGG | 
(3GGG (3GGG GF GF | {G}"D"A2 c2 AG F2 | {c}df {c}d2 dc BG | "G"B4 BF (3EFE | D4 FA df | 
b8 | 


